X: 34988
T: Rodney's Glory
R: hornpipe
M: 4/4
K: Adorian
ed|:c2 Bc AB cA|BG EF GA Bd|eg ed ^cd ef|ga ge dg ed|
~c2 Bc AB cA|BG EF GA ed|(3cdc BA GA (3BAG|1 A4 A2 ed:|2 A4 AB cd||
|:ea ag ag ed|(3efg ed c2 Af|gd (3efg ag e^c|d^c AF GD (3EFG|
A2 AB cB cd|ed (3efg a2 ab|ag ed ^cd ef|ga ge dg ed|
(3cdc (3BcB (3ABc BA|BG EF GA ed|(3cdc BA GA (3BAG|1 A4 AB cd:|2 A6||

